brandFactory_export/1.Light/Documento_Archivo musica_1Light.svg

<?xml version="1.0" encoding="UTF-8"?>
<svg width="24px" height="24px" viewBox="0 0 24 24" version="1.1" xmlns="http://www.w3.org/2000/svg" xmlns:xlink="http://www.w3.org/1999/xlink">
    <title>1.Light/Documento_Archivo musica_1Light</title>
    <g id="Symbols" stroke="none" stroke-width="1" fill="none" fill-rule="evenodd">
        <g id="1.Light/Documento_Archivo-musica_1Light" fill="#5CB615" fill-rule="nonzero">
            <path d="M19.2823529,22.6319328 C19.5310924,22.6319328 19.7630252,22.410084 19.7630252,22.1781513 L19.7630252,7.92268908 L16.7109244,7.92268908 C15.5445378,7.92268908 14.5394958,7.54285714 13.8033613,6.82352941 C13.0638655,6.10084034 12.6739496,5.11260504 12.6739496,3.96302521 L12.6739496,0.994957983 L4.49243697,0.994957983 C4.27394958,0.994957983 4.01176471,1.24033613 4.01176471,1.4487395 L4.01176471,22.1781513 C4.01176471,22.4033613 4.25378151,22.6319328 4.49243697,22.6319328 L19.2823529,22.6319328 L19.2823529,22.6319328 Z M19.507563,6.92773109 L13.6554622,1.21008403 L13.6554622,3.95966387 C13.6554622,4.83361345 13.9411765,5.57647059 14.4857143,6.10756303 C15.0336134,6.64201681 15.8033613,6.92773109 16.707563,6.92773109 L19.507563,6.92773109 L19.507563,6.92773109 Z M20.707563,6.90756303 C20.7344538,6.96806723 20.7478992,7.03193277 20.7478992,7.10252101 L20.7478992,22.1781513 C20.7478992,22.9613445 20.0789916,23.6235294 19.2823529,23.6235294 L4.49243697,23.6235294 C3.71260504,23.6235294 3.02689076,22.9478992 3.02689076,22.1781513 L3.02689076,1.44537815 C3.02689076,0.68907563 3.72605042,0 4.49243697,0 L13.4941176,0 C13.7092437,0 13.9109244,0.0840336134 14.0655462,0.231932773 L20.4991597,6.51764706 C20.610084,6.62184874 20.6705882,6.75966387 20.707563,6.90756303 L20.707563,6.90756303 Z M14.4184874,20.0033613 C14.9226891,19.9932773 15.5176471,19.7815126 15.5176471,18.8302521 C15.5176471,17.8756303 14.9159664,17.6638655 14.4117647,17.6504202 L14.2705882,17.6504202 C13.7798319,17.6537815 13.1882353,17.8621849 13.1882353,18.8235294 C13.1882353,19.7848739 13.7831933,19.9966387 14.2840336,20.0033613 L14.4184874,20.0033613 L14.4184874,20.0033613 Z M10.6067227,11.092437 L15.5176471,12.4403361 L15.5176471,11.5361345 L10.6067227,10.1915966 L10.6067227,11.092437 L10.6067227,11.092437 Z M8.52605042,17.5428571 C9.02689076,17.5361345 9.62521008,17.3243697 9.62521008,16.3731092 C9.62521008,15.4184874 9.02352941,15.2067227 8.51932773,15.1932773 L8.37478992,15.189916 C7.88403361,15.1932773 7.29579832,15.405042 7.29579832,16.3630252 C7.29579832,17.3277311 7.8907563,17.5394958 8.39159664,17.5462185 L8.52605042,17.5428571 L8.52605042,17.5428571 Z M15.8403361,10.5915966 C16.210084,10.6319328 16.4991597,10.9512605 16.4991597,11.3344538 L16.4991597,18.8302521 C16.4991597,20.4 15.3865546,20.9781513 14.4352941,20.994958 L14.2672269,20.994958 C13.3159664,20.9815126 12.2033613,20.4033613 12.2033613,18.8201681 C12.2033613,17.2336134 13.3092437,16.6655462 14.2571429,16.6554622 L14.4285714,16.6554622 C14.7915966,16.6655462 15.1747899,16.7529412 15.5142857,16.9478992 L15.5142857,13.4621849 L10.6033613,12.1176471 L10.5865546,16.5445378 C10.502521,17.9731092 9.45378151,18.5176471 8.5394958,18.5310924 L8.37815126,18.5310924 C7.42016807,18.5176471 6.30756303,17.9394958 6.30756303,16.3563025 C6.30756303,14.7697479 7.41344538,14.2016807 8.36134454,14.1915966 L8.5394958,14.194958 C8.89915966,14.205042 9.2789916,14.2957983 9.61512605,14.487395 L9.61512605,9.85546218 C9.61512605,9.44201681 9.94789916,9.10588235 10.3579832,9.10588235 L10.4857143,9.12268908 L15.8403361,10.5915966 Z" id="Documento_Archivo-musica_1Light"></path>
        </g>
    </g>
</svg>

<svg width="24" height="24" viewBox="0 0 24 24" xmlns="http://www.w3.org/2000/svg"><path d="M19.282 22.632c.25 0 .481-.222.481-.454V7.923h-3.052c-1.166 0-2.172-.38-2.908-1.1-.74-.722-1.13-1.71-1.13-2.86V.995h-8.18c-.22 0-.481.245-.481.454v20.73c0 .224.242.453.48.453h14.79zm.226-15.704L13.655 1.21v2.75c0 .874.286 1.616.83 2.148.549.534 1.318.82 2.223.82h2.8zm1.2-.02a.47.47 0 01.04.195v15.075c0 .783-.669 1.446-1.466 1.446H4.492c-.78 0-1.465-.676-1.465-1.446V1.445C3.027.69 3.727 0 4.492 0h9.002c.215 0 .417.084.572.232l6.433 6.286c.111.104.172.242.209.39zm-6.29 13.095c.505-.01 1.1-.221 1.1-1.173 0-.954-.602-1.166-1.106-1.18h-.141c-.491.004-1.083.212-1.083 1.174 0 .96.595 1.173 1.096 1.18h.134zm-3.811-8.91l4.91 1.347v-.904l-4.91-1.344v.9zm-2.08 6.45c.5-.007 1.098-.219 1.098-1.17 0-.955-.601-1.166-1.106-1.18l-.144-.003c-.491.003-1.08.215-1.08 1.173 0 .965.596 1.176 1.097 1.183l.134-.003zm7.313-6.951c.37.04.66.36.66.742v7.496c0 1.57-1.113 2.148-2.065 2.165h-.168c-.951-.013-2.064-.592-2.064-2.175 0-1.586 1.106-2.154 2.054-2.165h.172c.363.01.746.098 1.085.293v-3.486l-4.91-1.344-.017 4.427c-.084 1.428-1.133 1.973-2.048 1.986h-.16c-.959-.013-2.071-.592-2.071-2.175 0-1.586 1.105-2.154 2.053-2.164l.178.003c.36.01.74.1 1.076.292V9.855c0-.413.333-.75.743-.75l.128.018 5.354 1.469z" fill="#5CB615" fill-rule="nonzero"/></svg>
